src/dark/hiso font dark_2709.svg

<svg xmlns="http://www.w3.org/2000/svg" width="99" height="126" viewBox="0 0 99 126"><path fill="#000101" d="M54 22.5l-54 27v54l27 13.5 54-27v-54l-27-13.5zm0 3.35l23.8 11.75-48.92 24.46-23.821-11.74 48.941-24.47zm-51 75.79v-48.99l24 11.82v49.03l-24-11.86zm74.27-44.379l-10.06 14.399 10.06 5.94v4.64l-12.36-7.3-8.861 12.68-8-5.17-17.749 24.62v-6.831l14.39-19.97-14.39-9.298v-4.761l24.679 15.96 22.291-31.889v6.98z"/></svg>

<svg xmlns="http://www.w3.org/2000/svg" width="99" height="126"><path fill="#000101" d="M54 22.5l-54 27v54L27 117l54-27V36L54 22.5zm0 3.35L77.8 37.6 28.88 62.06 5.059 50.32 54 25.85zM3 101.64V52.65l24 11.82v49.03L3 101.64zm74.27-44.379L67.21 71.66l10.06 5.94v4.64l-12.36-7.3-8.861 12.68-8-5.17L30.3 107.07v-6.831l14.39-19.97-14.39-9.298V66.21l24.679 15.96L77.27 50.281v6.98z"/></svg>
